lib/flags/l/JEY.svg

<svg xmlns="http://www.w3.org/2000/svg" fill="none" viewBox="0 0 32 24"><mask id="JEY_svg__a" width="32" height="24" x="0" y="0" mask-type="alpha" maskUnits="userSpaceOnUse"><path fill="#fff" d="M0 0H32V24H0z"/></mask><g mask="url(#JEY_svg__a)"><path fill="#F7FCFF" fill-rule="evenodd" d="M0 0H32V24H0V0Z" clip-rule="evenodd"/><path fill="#F7FCFF" stroke="#E31D1C" stroke-width="2.7" d="M-2.70149 1.2448L-4.75002 0.00609732V2.40002V22.4V24.794L-2.70149 23.5553L13.8363 13.5553L15.7468 12.4L13.8363 11.2448L-2.70149 1.2448Z"/><path fill="#F7FCFF" stroke="#E31D1C" stroke-width="2.7" d="M34.9209 1.23262L36.9489 0.0548477V2.40002V22.4V24.7452L34.9209 23.5674L17.7021 13.5674L15.6919 12.4L17.7021 11.2326L34.9209 1.23262Z"/><path fill="#E31D1C" fill-rule="evenodd" d="M13.6746 4.70296C13.6746 4.70296 12.816 8.50127 15.7807 9.96008C15.7807 9.96008 18.6269 8.40875 17.9877 4.70296C17.9877 4.70296 16.7653 4.29407 15.7934 4.29407C14.8214 4.29407 13.6746 4.70296 13.6746 4.70296Z" clip-rule="evenodd"/><path fill="#FFD100" fill-rule="evenodd" d="M13.9824 5.49845C13.9824 5.49845 14.2994 5.35807 14.4564 5.49845 14.6134 5.63883 14.742 5.48682 14.742 5.40214 14.742 5.31746 14.9912 5.02676 14.9912 5.26261 14.9912 5.49845 14.9136 5.63162 15.1327 5.63162 15.3518 5.63162 16.3382 5.30583 16.5748 5.40214 16.8113 5.49845 16.9924 5.4745 16.9322 5.33631 16.8721 5.19812 16.7175 5.11175 16.42 5.18718 16.1224 5.26261 16.1926 5.33631 15.9354 5.33631 15.6782 5.33631 15.3919 5.26261 15.3919 5.26261 15.3919 5.26261 15.4724 5.13868 15.766 5.22683 16.0596 5.31498 16.4646 5.11766 16.5748 5.11766 16.6849 5.11766 16.9881 5.11175 17.0181 5.18718 17.0482 5.26261 17.2312 5.33182 17.0917 5.40214 16.9522 5.47246 16.7221 5.51651 16.8804 5.6066 17.0387 5.69669 17.4027 5.67933 17.4203 5.77305 17.4378 5.86676 17.6104 6.0067 17.5411 6.0067 17.4719 6.0067 17.3467 6.13868 17.2302 6.0985 17.1137 6.05831 17.1 6.02303 17.2117 5.99047 17.3234 5.95792 17.3224 5.82101 17.2302 5.82101 17.138 5.82101 17.183 5.86898 16.9732 5.82101 16.7633 5.77305 16.4856 5.71972 16.5023 5.82101 16.519 5.9223 16.6556 6.07778 16.4036 6.0985 16.1515 6.11922 16.0335 6.20241 15.9845 6.13542 15.9354 6.06842 15.76 5.97915 15.8979 5.95052 16.0358 5.9219 16.1676 6.04783 16.2173 6.02726 16.2669 6.0067 16.3795 5.99526 16.2852 5.90813 16.1909 5.82101 16.0355 5.76972 16.1796 5.70451 16.3237 5.6393 16.21 5.63796 15.9354 5.77305 15.6608 5.90813 15.5081 6.02294 15.267 6.0067 15.026 5.99047 14.9357 6.01237 14.8582 5.99047 14.7807 5.96857 14.4034 6.23242 14.2947 6.16546 14.1861 6.0985 13.8353 6.07281 13.8984 5.99047 13.9616 5.90813 14.0463 5.86574 14.1408 5.90813 14.2352 5.95052 14.329 5.99292 14.3927 5.95052 14.4564 5.90813 14.6403 5.76267 14.594 5.73359 14.5478 5.70451 14.5925 5.6066 14.3306 5.6066 14.0687 5.6066 13.9766 5.71572 13.9145 5.64697 13.8523 5.57821 13.9824 5.49845 13.9824 5.49845zM14.244 6.74662C14.244 6.74662 14.5228 6.6232 14.6608 6.74662 14.7988 6.87003 14.9118 6.73639 14.9118 6.66194 14.9118 6.5875 15.1309 6.33192 15.1309 6.53927 15.1309 6.74662 15.0627 6.86369 15.2553 6.86369 15.4479 6.86369 16.3152 6.57727 16.5232 6.66194 16.7311 6.74662 16.8903 6.72556 16.8374 6.60407 16.7845 6.48257 16.6487 6.40664 16.387 6.47296 16.1254 6.53927 16.1872 6.60407 15.961 6.60407 15.7349 6.60407 15.4833 6.53927 15.4833 6.53927 15.4833 6.53927 15.554 6.43032 15.8121 6.50782 16.0703 6.58532 16.4263 6.41184 16.5232 6.41184 16.62 6.41184 16.8865 6.40664 16.913 6.47296 16.9394 6.53927 17.1003 6.60012 16.9776 6.66194 16.855 6.72376 16.6527 6.76249 16.7919 6.8417 16.931 6.9209 17.2511 6.90564 17.2665 6.98803 17.2819 7.07042 17.4336 7.19345 17.3727 7.19345 17.3119 7.19345 17.2018 7.30948 17.0994 7.27415 16.9969 7.23882 16.9849 7.2078 17.0831 7.17918 17.1814 7.15056 17.1804 7.0302 17.0994 7.0302 17.0184 7.0302 17.0579 7.07237 16.8734 7.0302 16.6889 6.98803 16.4448 6.94115 16.4595 7.0302 16.4741 7.11924 16.5942 7.25594 16.3726 7.27415 16.151 7.29237 16.0473 7.36551 16.0042 7.30661 15.961 7.24771 15.8069 7.16923 15.9281 7.14406 16.0493 7.11889 16.1652 7.2296 16.2088 7.21153 16.2525 7.19345 16.3515 7.18339 16.2686 7.10679 16.1857 7.0302 16.049 6.9851 16.1757 6.92777 16.3024 6.87044 16.2024 6.86926 15.961 6.98803 15.7196 7.10679 15.5854 7.20772 15.3735 7.19345 15.1615 7.17918 15.0821 7.19843 15.014 7.17918 14.9459 7.15993 14.6142 7.39189 14.5186 7.33302 14.4231 7.27415 14.1147 7.25157 14.1702 7.17918 14.2257 7.10679 14.3003 7.06952 14.3833 7.10679 14.4663 7.14406 14.5488 7.18133 14.6048 7.14406 14.6608 7.10679 14.8224 6.97891 14.7818 6.95334 14.7411 6.92777 14.7804 6.8417 14.5502 6.8417 14.3199 6.8417 14.239 6.93762 14.1843 6.87718 14.1297 6.81674 14.244 6.74662 14.244 6.74662zM14.6142 8.01345C14.6142 8.01345 14.8256 7.91987 14.9302 8.01345 15.0349 8.10704 15.1206 8.0057 15.1206 7.94925 15.1206 7.89279 15.2868 7.69899 15.2868 7.85622 15.2868 8.01345 15.2351 8.10223 15.3811 8.10223 15.5271 8.10223 16.1848 7.88504 16.3425 7.94925 16.5002 8.01345 16.6209 7.99749 16.5808 7.90536 16.5407 7.81323 16.4377 7.75565 16.2393 7.80594 16.0409 7.85622 16.0877 7.90536 15.9162 7.90536 15.7448 7.90536 15.5539 7.85622 15.5539 7.85622 15.5539 7.85622 15.6075 7.77361 15.8033 7.83237 15.9991 7.89114 16.2691 7.75959 16.3425 7.75959 16.4159 7.75959 16.618 7.75565 16.6381 7.80594 16.6581 7.85622 16.7801 7.90237 16.6871 7.94925 16.5941 7.99613 16.4407 8.02549 16.5462 8.08555 16.6518 8.14562 16.8945 8.13404 16.9062 8.19652 16.9179 8.25899 17.0329 8.35229 16.9867 8.35229 16.9406 8.35229 16.8571 8.44028 16.7794 8.41348 16.7018 8.38669 16.6926 8.36317 16.7671 8.34147 16.8416 8.31976 16.8409 8.22849 16.7794 8.22849 16.718 8.22849 16.748 8.26047 16.6081 8.22849 16.4682 8.19652 16.2831 8.16097 16.2942 8.22849 16.3053 8.29602 16.3964 8.39967 16.2284 8.41348 16.0603 8.4273 15.9817 8.48276 15.9489 8.4381 15.9162 8.39343 15.7993 8.33392 15.8913 8.31484 15.9832 8.29575 16.071 8.3797 16.1041 8.366 16.1373 8.35229 16.2123 8.34466 16.1494 8.28658 16.0866 8.22849 15.983 8.1943 16.079 8.15082 16.1751 8.10735 16.0993 8.10646 15.9162 8.19652 15.7332 8.28658 15.6314 8.36311 15.4707 8.35229 15.31 8.34147 15.2498 8.35606 15.1981 8.34147 15.1465 8.32687 14.8949 8.50277 14.8225 8.45813 14.75 8.41348 14.5162 8.39636 14.5583 8.34147 14.6004 8.28657 14.6569 8.25831 14.7198 8.28658 14.7828 8.31484 14.8453 8.3431 14.8878 8.31484 14.9302 8.28657 15.0528 8.1896 15.022 8.17021 14.9912 8.15082 15.021 8.08555 14.8464 8.08555 14.6718 8.08555 14.6104 8.1583 14.569 8.11246 14.5275 8.06663 14.6142 8.01345 14.6142 8.01345z" clip-rule="evenodd"/></g></svg>

<svg xmlns="http://www.w3.org/2000/svg" fill="none" viewBox="0 0 32 24"><mask id="JEY_svg__a" width="32" height="24" x="0" y="0" maskUnits="userSpaceOnUse"><path fill="#fff" d="M0 0h32v24H0z"/></mask><g mask="url(#JEY_svg__a)"><path fill="#F7FCFF" fill-rule="evenodd" d="M0 0h32v24H0V0z" clip-rule="evenodd"/><path fill="#F7FCFF" stroke="#E31D1C" stroke-width="2.7" d="M-2.701 1.245L-4.75.006v24.788l2.049-1.239 16.537-10 1.91-1.155-1.91-1.155-16.537-10z"/><path fill="#F7FCFF" stroke="#E31D1C" stroke-width="2.7" d="M34.92 1.233L36.95.055v24.69l-2.028-1.178-17.219-10-2.01-1.167 2.01-1.167 17.219-10z"/><path fill="#E31D1C" fill-rule="evenodd" d="M13.675 4.703s-.859 3.798 2.106 5.257c0 0 2.846-1.551 2.207-5.257 0 0-1.223-.409-2.195-.409-.972 0-2.118.409-2.118.409z" clip-rule="evenodd"/><path fill="#FFD100" fill-rule="evenodd" d="M13.982 5.499s.317-.14.474 0c.157.14.286-.012.286-.097 0-.084.25-.375.25-.14 0 .237-.078.37.14.37.22 0 1.206-.326 1.443-.23.236.097.417.073.357-.066-.06-.138-.214-.224-.512-.149-.298.076-.227.15-.485.15-.257 0-.543-.074-.543-.074s.08-.124.374-.036.699-.11.809-.11c.11 0 .413-.005.443.07.03.076.213.145.074.215-.14.07-.37.115-.212.205.159.09.523.072.54.166.018.094.19.234.121.234-.07 0-.194.132-.31.092-.117-.04-.131-.076-.02-.108.112-.033.111-.17.02-.17-.093 0-.048.048-.258 0-.21-.048-.487-.101-.47 0 .016.101.153.257-.1.278-.252.02-.37.104-.418.037-.05-.067-.225-.157-.087-.185.138-.029.27.097.32.076.049-.02.162-.032.067-.119-.094-.087-.25-.138-.105-.203.144-.066.03-.067-.245.068-.274.135-.427.25-.668.234-.241-.016-.331.005-.409-.016-.077-.022-.455.242-.563.175-.109-.067-.46-.093-.397-.175.064-.083.148-.125.243-.083.094.043.188.085.252.043.063-.043.247-.188.201-.217-.046-.03-.002-.127-.263-.127-.262 0-.354.109-.416.04-.063-.069.067-.148.067-.148zm.262 1.248s.279-.124.417 0c.138.123.25-.01.25-.085 0-.074.22-.33.22-.123 0 .208-.068.325.124.325.193 0 1.06-.287 1.268-.202.208.085.367.064.314-.058-.052-.121-.188-.197-.45-.131s-.2.131-.426.131c-.226 0-.478-.065-.478-.065s.071-.109.33-.031c.257.077.613-.096.71-.096.097 0 .364-.005.39.061.026.066.187.127.065.189-.123.062-.325.1-.186.18.139.079.46.064.474.146.016.082.168.205.107.205-.061 0-.171.117-.274.081-.102-.035-.114-.066-.016-.095.098-.028.097-.149.016-.149-.08 0-.041.042-.226 0-.184-.042-.428-.089-.414 0 .015.09.135.226-.086.244-.222.018-.326.092-.369.033-.043-.06-.197-.138-.076-.163.121-.025.237.086.28.068.045-.019.144-.029.06-.105-.082-.077-.219-.122-.092-.18.126-.057.026-.058-.215.061s-.376.22-.588.205c-.211-.014-.29.005-.359-.014-.068-.02-.4.213-.495.154-.096-.059-.404-.081-.349-.154.056-.072.13-.11.213-.072.083.037.166.074.222.037.056-.037.217-.165.177-.19-.04-.026-.002-.112-.232-.112s-.311.096-.366.035c-.054-.06.06-.13.06-.13zm.37 1.266s.212-.093.316 0c.105.094.19-.007.19-.064 0-.056.167-.25.167-.093s-.052.246.094.246.804-.217.962-.153c.157.064.278.049.238-.044-.04-.092-.143-.15-.342-.099-.198.05-.151.1-.323.1-.171 0-.362-.05-.362-.05s.053-.082.25-.024c.195.06.465-.072.539-.072.073 0 .275-.004.295.046.02.05.142.096.05.143-.094.047-.247.077-.142.137.106.06.349.048.36.11.012.063.127.156.08.156-.045 0-.129.088-.207.062-.077-.027-.086-.05-.012-.072.075-.022.074-.113.012-.113-.061 0-.031.032-.17 0-.14-.032-.326-.068-.315 0 .011.067.102.17-.066.185-.168.013-.246.069-.28.024-.032-.045-.149-.104-.057-.123.092-.02.18.065.213.051.033-.014.108-.021.045-.08-.062-.057-.166-.092-.07-.135.096-.044.02-.044-.163.046s-.285.166-.445.155c-.161-.01-.221.004-.273-.01-.052-.015-.303.16-.376.116-.072-.044-.306-.062-.264-.117.042-.054.099-.083.162-.054.063.028.125.056.168.028.042-.028.165-.125.134-.145-.03-.02-.001-.084-.176-.084-.174 0-.236.072-.277.027-.042-.046.045-.1.045-.1z" clip-rule="evenodd"/></g></svg>
